!!!OTL: Der Schwartenhals
!!!ARE: Europa, Mitteleuropa, Deutschland
!!!SCT: A0421A
!!!YEM: Copyright 1995, estate of Helmut Schaffrath.
**kern
*ICvox
*Ivox
*M4/4
*k[b-e-]
*g:
{4g
=1
2b-
2b-
=2
2cc
2cc
=3
2dd
2dd
=4
2dd
4r}
{4ee
=5
2.ffn
4ee
=6
2dd
2cc
=7
4b-
8a
8g
2a
=8
2g
4r}
{4g
=9
2a
2dd
=10
4dd
4cc
4b-
4a
=11
2.g
8fn
8e
=12
2d
4r}
{4b-
=13
2.ffn
4ee-
=14
2dd
2cc
=15
4b-
8a
8g
2a
=16
2.g}
==
!!!AGN: Romanze, Ballade, Lied, Kriegslied
!! Forster, Frische Liedlein III 1549 No. 29.
!!!ONB: ESAC (Essen Associative Code) Database: ALTDEU
!!!AMT: simple quadruple
!!!AIN: vox
!!!EED: Helmut Schaffrath
!!!EEV: 1.0
*-
